!!!COM: Palestrina, Giovanni Perluigi da
!!!OPR: Veni sponsa Christi
!!!OTL: Credo
**kern	**kern	**kern	**kern
*ICvox	*ICvox	*ICvox	*ICvox
*Ibass	*Itenor	*Icalto	*Icant
!Bassus	!Tenor	!Altus	!Cantus
*clefF4	*clefGv2	*clefG2	*clefG2
*k[]	*k[]	*k[]	*k[]
*G:mix	*G:mix	*G:mix	*G:mix
*M4/2	*M4/2	*M4/2	*M4/2
=1	=1	=1	=1
0r	0r	0r	1dd
.	.	.	2b
.	.	.	2b
=2	=2	=2	=2
0r	0r	1g	2dd
.	.	.	2dd
.	.	2e	1ee
.	.	2e	.
=3	=3	=3	=3
0r	0r	2g	2dd
.	.	2g	2gg
.	.	1a	2ee
.	.	.	2ff
=4	=4	=4	=4
0r	0r	2g	4gg
.	.	.	4ff
.	.	2cc	4ee
.	.	.	4dd
.	.	2a	2cc
.	.	2b	2dd
=5	=5	=5	=5
0r	0r	4cc	1ee
.	.	4b	.
.	.	4a	.
.	.	4g	.
.	.	2f	2.dd
.	.	2g	.
.	.	.	4ee
=6	=6	=6	=6
0r	1r	4a	4cc
.	.	4g	4b
.	.	1g	4b
.	.	.	8a
.	.	.	8g
.	2.d	.	1a
.	.	2f#	.
.	4d	.	.
=7	=7	=7	=7
2.G	2d	0g	0b
.	2B	.	.
4G	.	.	.
2G	2d	.	.
2E	[2e	.	.
=8	=8	=8	=8
2G	4e]	0r	0r
.	4d	.	.
2.A	4c	.	.
.	4B	.	.
.	2c	.	.
4G	.	.	.
4F	[2d	.	.
4E	.	.	.
=9	=9	=9	=9
2.F	4d]	0r	2r
.	4c	.	.
.	1c	.	2cc
4E	.	.	.
2D	.	.	2dd
2D	2B	.	[2ff
=10	=10	=10	=10
2C	1c	2.g	4ff]
.	.	.	4ee
2c	.	.	2ee
.	.	4g	.
2B	2d	2g	2dd
[2c	2c	2e	[2ee
=11	=11	=11	=11
2c]	2e	2g	4ee]
.	.	.	4dd
2F	2f	2a	1cc
2G	2d	[1g	.
2G	2d	.	2b
=12	=12	=12	=12
2C	2.e	1g]	2.cc
1c	.	.	.
.	4d	.	8b
.	.	.	8a
.	4e	2r	1g
.	4c	.	.
2B	2d	[2g	.
=13	=13	=13	=13
2.c	1e	2g]	2r
.	.	2e	1cc
4B	.	.	.
2A	1r	2f	.
2G	.	2g	2b
=14	=14	=14	=14
4A	2r	2f	2.cc
4G	.	.	.
4F	1f	2f	.
4G	.	.	4b
4A	.	2c	2a
4B	.	.	.
2c	2e	[2cc	2g
=15	=15	=15	=15
1F	2.f	4cc]	4a
.	.	4b	4g
.	.	4a	4f
.	4e	4g	4g
1r	2d	4f	4a
.	.	4d	4b
.	2c	[2g	2cc
=16	=16	=16	=16
0r	1d	2g]	2b
.	.	2f	2.a
.	2B	2d	.
.	.	.	4g
.	2c	[2e	[2g
=17	=17	=17	=17
2r	1A	2e]	2g]
2.c	.	4d	2f#
.	.	4c	.
.	2G	2d	1g
4c	.	.	.
2B	2d	[2g	.
=18	=18	=18	=18
2.c	2.e	4g]	2r
.	.	4g	.
.	.	2e	2.cc
4B	4d	.	.
2A	2c	2f	.
.	.	.	4cc
2G	2d	2g	2b
=19	=19	=19	=19
4A	1c	2f	2.cc
4G	.	.	.
4F	.	2f	.
4G	.	.	4b
4A	1r	4c	2a
4B	.	4d	.
[2c	.	4e	2g
.	.	4c	.
=20	=20	=20	=20
2c]	2r	2d	2dd
2B	2.g	2d	2dd
1c	.	2c	1ee
.	4g	.	.
.	2e	[2cc	.
=21	=21	=21	=21
0r	2f	4cc]	2.dd
.	.	4cc	.
.	2g	2b	.
.	.	.	4g
.	2f	2.cc	4a
.	.	.	4b
.	2f	.	4cc
.	.	4b	4dd
=22	=22	=22	=22
0r	2c	2a	4ee
.	.	.	4ff
.	2e	2g	1gg
.	1d	2a	.
.	.	2a	2ff#
=23	=23	=23	=23
1r	2r	4g	2.gg
.	.	4f	.
.	1g	4e	.
.	.	4d	4ff
2r	.	1c	2.ee
[2c	2g	.	.
.	.	.	4dd
=24	=24	=24	=24
2c]	2e	0r	1cc
2c	2g	.	.
2A	4f	.	1r
.	4e	.	.
2c	[2a	.	.
=25	=25	=25	=25
1B	2a]	0r	1r
.	2g#	.	.
1A	1a	.	2r
.	.	.	[2cc
=26	=26	=26	=26
0r	0r	2r	2cc]
.	.	1f	2cc
.	.	.	2a
.	.	2f	2cc
=27	=27	=27	=27
0r	0r	2d	2b
.	.	2f	4a
.	.	.	4b
.	.	2e	4cc
.	.	.	4a
.	.	4d	[2dd
.	.	4e	.
=28	=28	=28	=28
0r	2r	4f	2dd]
.	.	4g	.
.	2f	1a	2cc
.	2d	.	1b
.	2e	2g#	.
=29	=29	=29	=29
2r	1.f	1a	2r
2F	.	.	2cc
2F	.	2r	2a
2G	4e	2g	2b
.	4d	.	.
=30	=30	=30	=30
1A	1c	2e	1cc
.	.	2f#	.
1G	2d	1g	1b
.	[2g	.	.
=31	=31	=31	=31
2r	2g]	1c	1ee
2c	2e	.	.
2A	1f	1r	2cc
2B	.	.	2dd
=32	=32	=32	=32
2c	4e	2r	2ee
.	4f	.	.
2c	4g	2cc	2ee
.	4e	.	.
1d	2f	2a	1dd
.	2f	2b	.
=33	=33	=33	=33
1c	2g	2cc	1ee
.	1g	2cc	.
1G	.	2b	2dd
.	2e	2g	[2ee
=34	=34	=34	=34
1A	1c	2e	4ee]
.	.	.	4dd
.	.	2f#	2cc
2G	2d	2g	2b
2E	2e	2g	2g
=35	=35	=35	=35
2F	2d	2f	2a
2F	1c	2e	2a
1G	.	1g	1dd
.	2B	.	.
=36	=36	=36	=36
1C	1c	0g	0ee
2.c	1r	.	.
4c	.	.	.
=37	=37	=37	=37
2c	2.g	0r	0r
2c	.	.	.
.	4g	.	.
2B	2g	.	.
2G	2g	.	.
=38	=38	=38	=38
2A	2f	0r	0r
2B	2d	.	.
2.c	2e	.	.
.	2e	.	.
4B	.	.	.
=39	=39	=39	=39
2A	2.f	0r	1r
2F	.	.	.
.	4e	.	.
2G	2d	.	2r
2A	2c	.	[2cc
=40	=40	=40	=40
1G	1d	2r	2cc]
.	.	1g	2b
1r	1d	.	2a
.	.	2f	2a
=41	=41	=41	=41
0r	0r	2e	4g
.	.	.	4a
.	.	2e	4b
.	.	.	4cc
.	.	4d	2.dd
.	.	4e	.
.	.	4f	.
.	.	4g	4ee
=42	=42	=42	=42
0r	0r	4a	4ff
.	.	4b	4dd
.	.	2cc	2ee
.	.	2b	2dd
.	.	2a	2cc
=43	=43	=43	=43
1E	2r	2g#	2b
.	2e	2g#	2b
2E	2e	2g#	2b
2E	2e	2g#	2b
=44	=44	=44	=44
1A	1e	1a	1cc
2F	2f	2a	2cc
2F	2f	2a	2cc
=45	=45	=45	=45
1G	2d	1g	1b
.	2d	.	.
2r	2d	2r	2r
2G	2d	2b	2dd
=46	=46	=46	=46
2G	2.g	2b	2dd
2G	.	2b	2dd
.	4f	.	.
1c	4e	2cc	1ee
.	4d	.	.
.	2e	2g	.
=47	=47	=47	=47
2A	2f	1a	2cc
2A	2e	.	2cc
1B	1d	[1g	1dd
=48	=48	=48	=48
0c	2c	1g]	1ee
.	1g	.	.
.	.	1e	1gg
.	[2e	.	.
=49	=49	=49	=49
1c	2e]	1r	1ee
.	1c	.	.
1A	.	2r	1cc
.	[2A	[2cc	.
=50	=50	=50	=50
1F	2A]	2cc]	1a
.	2.f	1a	.
2.D	.	.	2.f
.	4e	.	.
.	2d	[2f	.
4E	.	.	4g
=51	=51	=51	=51
2F	2.c	2f]	2a
2C	.	2e	1g
.	4B	.	.
1D	1A	1d	.
.	.	.	2f#
=52	=52	=52	=52
1G	1B	1d	1g
1r	1r	1r	1r
=53	=53	=53	=53
0G	0d	0g	0b
=54	=54	=54	=54
1G	1B	1g	1.dd
1F	1d	1a	.
.	.	.	2a
=55	=55	=55	=55
1E	1e	1g	2cc
.	.	.	2b
1C	1e	2a	1cc
.	.	[2g	.
=56	=56	=56	=56
1D	1d	2g]	2b
.	.	4f#	4a
.	.	4e	4g
2r	2r	2f#	2a
2D	2d	2f#	2a
=57	=57	=57	=57
1.G	1d	1.g	2.b
.	.	.	4cc
.	1B	.	4dd
.	.	.	4b
2G	.	2g	[2ee
=58	=58	=58	=58
1A	1c	1e	4ee]
.	.	.	4dd
.	.	.	1cc
1G	1d	[1g	.
.	.	.	2b
=59	=59	=59	=59
2C	1c	1g]	1ee
2.c	.	.	.
.	1G	1g	1dd
8B	.	.	.
8A	.	.	.
2B	.	.	.
=60	=60	=60	=60
2c	2r	2r	2ee
1F	1c	1a	1ff
2F	2c	2a	2ff
=61	=61	=61	=61
1C	1c	1g	1ee
1D	1A	1f	1dd
=62	=62	=62	=62
1A	1c	4e	1ee
.	.	4A	.
.	.	1a	.
1E	1B	.	1ee
.	.	2g#	.
=63	=63	=63	=63
1F	1A	2.a	2cc
.	.	.	4f
.	.	4b	4g
1F	1A	2cc	4a
.	.	.	4b
.	.	4c	[2cc
.	.	4d	.
=64	=64	=64	=64
1E	1G	4e	4cc]
.	.	4f	8b
.	.	.	8a
.	.	2.g	2b
1D	1A	.	1dd
.	.	8f#	.
.	.	8e	.
.	.	2f#	.
=65	=65	=65	=65
0C	1.c	2g	1ee
.	.	2g	.
.	.	4a	1ee
.	.	4g	.
.	2B	[2g	.
=66	=66	=66	=66
0D	0A	2g]	0dd
.	.	4f#	.
.	.	4e	.
.	.	2f#	.
.	.	2f#	.
=67	=67	=67	=67
0G	0G	0g	0b
=68	=68	=68	=68
0r	0r	1r	1.dd
.	.	[1g	.
.	.	.	2dd
=69	=69	=69	=69
0r	0r	2g]	1ee
.	.	2a	.
.	.	2b	1dd
.	.	2b	.
=70	=70	=70	=70
0r	0r	2.cc	2.ee
.	.	4a	4cc
.	.	2b	2dd
.	.	2g	2b
=71	=71	=71	=71
0r	1r	4a	4cc
.	.	4g	4b
.	.	1g	4b
.	.	.	8a
.	.	.	8g
.	1d	.	1a
.	.	2f#	.
=72	=72	=72	=72
1r	2.e	0g	4g
.	.	.	4a
.	.	.	4b
.	4c	.	4cc
1G	2d	.	1b
.	2B	.	.
=73	=73	=73	=73
2.A	4c	0r	1a
.	4d	.	.
.	4e	.	.
4F	4f	.	.
2G	4e	.	1r
.	4d	.	.
2E	4c	.	.
.	4B	.	.
=74	=74	=74	=74
4F	4A	0r	1r
4E	4B	.	.
4E	1c	.	.
8D	.	.	.
8C	.	.	.
1D	.	.	2r
.	2B	.	[2ff
=75	=75	=75	=75
1C	1c	2r	2ff]
.	.	2cc	2ee
2.D	2r	2b	1dd
.	[2f	[2a	.
4E	.	.	.
=76	=76	=76	=76
2F	2f]	2a]	1cc
2C	2e	2.g	.
2D	2.d	.	2b
.	.	4f	.
2D	.	2f	[2a
.	4c	.	.
=77	=77	=77	=77
2E	2B	2e	4a]
.	.	.	4g
2C	2c	2e	1g
1D	2A	2.d	.
.	2A	.	2f#
.	.	4c	.
=78	=78	=78	=78
1E	1G	2d	[0g
.	.	1e	.
1r	1c	.	.
.	.	4d	.
.	.	4c	.
=79	=79	=79	=79
1G	2.d	1B	1g]
.	4e	.	.
2.A	2f	1r	1r
.	2c	.	.
4B	.	.	.
=80	=80	=80	=80
2c	2e	0r	0r
2A	2f#	.	.
2B	2g	.	.
2c	[2a	.	.
=81	=81	=81	=81
2d	2a]	0r	0r
2.e	4g	.	.
.	4f	.	.
.	4g	.	.
4d	4f	.	.
[2c	2e	.	.
=82	=82	=82	=82
2c]	1d	2r	1r
2B	.	2g	.
1A	1r	2f	2r
.	.	2e	2cc
=83	=83	=83	=83
0r	0r	2g	2b
.	.	2.a	2a
.	.	.	2cc
.	.	4g	.
.	.	4f	[2dd
.	.	4e	.
=84	=84	=84	=84
0r	1r	1d	4dd]
.	.	.	4cc
.	.	.	4b
.	.	.	4a
.	2r	1e	1g
.	[2g	.	.
=85	=85	=85	=85
2r	2g]	1d	0a
1d	2f	.	.
.	1e	1A	.
2c	.	.	.
=86	=86	=86	=86
2B	2d	0r	0r
2A	2.a	.	.
1c	.	.	.
.	4g	.	.
.	2e	.	.
=87	=87	=87	=87
1d	1f	2r	1r
.	.	2a	.
2e	1e	2g	2r
2c	.	2e	2ee
=88	=88	=88	=88
2B	0r	2.g	2dd
2G	.	.	2b
.	.	4f	.
2.A	.	2e	2.cc
.	.	[2cc	.
4G	.	.	4b
=89	=89	=89	=89
1F	0r	4cc]	2a
.	.	4b	.
.	.	4a	2.ff
.	.	4g	.
1D	.	4a	.
.	.	4g	4ee
.	.	2f	[2dd
=90	=90	=90	=90
1A	2r	1e	2dd]
.	2A	.	2cc#
2r	[1d	1f#	1dd
2D	.	.	.
=91	=91	=91	=91
2.G	2d]	1r	0r
.	2e	.	.
4G	.	.	.
2A	2f	2r	.
2B	2g	2d	.
=92	=92	=92	=92
2c	2e	2g	2r
2A	2f	2a	2a
1G	1g	2.b	2.dd
.	.	8a	4ee
.	.	8g	.
=93	=93	=93	=93
0r	2r	2a	2ff
.	2G	2b	2gg
.	2c	2cc	2ee
.	2d	2a	2ff
=94	=94	=94	=94
2r	4e	1g	1gg
.	4f	.	.
2C	4g	.	.
.	4e	.	.
2F	2f	1r	2r
2G	2d	.	2g
=95	=95	=95	=95
2A	2c	2r	2cc
2B	4g	2d	2dd
.	4f	.	.
1c	4e	2g	4ee
.	4d	.	4ff
.	2e	2g	4gg
.	.	.	4ee
=96	=96	=96	=96
1r	2d	2a	2ff
.	2G	2b	2dd
2r	2c	2cc	2ee
[2G	[2g	[2b	[2dd
=97	=97	=97	=97
2G]	2g]	2b]	2dd]
2G	2g	2b	2dd
1E	1g	1b	1ee
=98	=98	=98	=98
2C	1g	2.cc	2ee
2C	.	.	2gg
.	.	4b	.
2D	2r	2a	2ff
2E	2g	2g	2ee
=99	=99	=99	=99
1F	2f	2a	2dd
.	2e	2a	1cc
1G	1d	1g	.
.	.	.	2b
=100	=100	=100	=100
1C	2c	2.e	1cc
.	1c	.	.
.	.	4f	.
2r	.	1g	1r
[2G	2d	.	.
=101	=101	=101	=101
2G]	2e	0r	0r
2A	2f	.	.
2B	2d	.	.
2c	2e	.	.
=102	=102	=102	=102
2A	2f	0r	0r
2B	2.g	.	.
2c	.	.	.
.	4f	.	.
4c	4e	.	.
4B	4d	.	.
=103	=103	=103	=103
4A	4c	1r	0r
4G	4d	.	.
4G	1e	.	.
8F	.	.	.
8E	.	.	.
2F	.	2r	.
2F	2d	[2a	.
=104	=104	=104	=104
1E	1e	2a]	2r
.	.	2g#	1ee
1r	1r	1a	.
.	.	.	2cc
=105	=105	=105	=105
0r	0r	2b	2dd
.	.	2.cc	4ee
.	.	.	4dd
.	.	.	4ee
.	.	4b	4ff
.	.	4b	[2gg
.	.	8a	.
.	.	8g	.
=106	=106	=106	=106
0r	1d	1a	2gg]
.	.	.	2ff
.	2e	[1g	1ee
.	[2c	.	.
=107	=107	=107	=107
1G	2c]	1g]	1dd
.	2B	.	.
2A	1c	1r	1r
[2F	.	.	.
=108	=108	=108	=108
2F]	2d	0r	0r
2E	2e	.	.
1F	4A	.	.
.	4B	.	.
.	4c	.	.
.	4d	.	.
=109	=109	=109	=109
2G	2e	0r	0r
2A	2.f	.	.
2D	.	.	.
.	4e	.	.
2F	[2d	.	.
=110	=110	=110	=110
1E	2d]	2r	1r
.	2c#	1g	.
1D	1d	.	2r
.	.	2f	[2dd
=111	=111	=111	=111
0r	0r	1g	2dd]
.	.	.	2b
.	.	2e	1cc
.	.	2a	.
=112	=112	=112	=112
0r	0r	1.g	2b
.	.	.	2ee
.	.	.	[1dd
.	.	4f	.
.	.	4e	.
=113	=113	=113	=113
0r	1r	4f	2dd]
.	.	4g	.
.	.	1a	2cc
.	[1e	.	1b
.	.	2g#	.
=114	=114	=114	=114
1.A	1e]	1a	1.cc#
.	1e	2.a	.
2A	.	.	2cc#
.	.	4a	.
=115	=115	=115	=115
2d	2f#	2a	2dd
2d	2f#	2a	2dd
1c	1g	1cc	1ee
=116	=116	=116	=116
2G	2g	2b	2dd
2G	2g	2b	2dd
2D	2f#	2a	2.dd
2D	2f#	2a	.
.	.	.	4dd
=117	=117	=117	=117
2G	2g	2b	2dd
2G	2g	2b	2ee
1F	1a	1cc	1ff
=118	=118	=118	=118
2C	2.g	2.cc	1ee
1c	.	.	.
.	4f	8b	.
.	.	8a	.
.	2e	1g	2r
2B	2d	.	[2gg
=119	=119	=119	=119
2A	1c	2r	2gg]
2A	.	1cc	2ff
1G	2.g	.	2ee
.	.	2b	2dd
.	4f	.	.
=120	=120	=120	=120
2A	2e	2a	2cc
2D	2d	2a	2ff
4A	2c	1a	2ee
4G	.	.	.
4F	[2f	.	[2dd
4E	.	.	.
=121	=121	=121	=121
2D	2f]	2a	2dd]
2E	2e	2g	1cc
2F	1d	2a	.
2G	.	4g	2b
.	.	4f	.
=122	=122	=122	=122
2C	1c	2.e	1cc
2c	.	.	.
.	.	8d	.
.	.	8c	.
2B	1g	2d	1r
2c	.	2e	.
=123	=123	=123	=123
2A	2f	0r	0r
2B	2g	.	.
2c	2e	.	.
[2d	2f	.	.
=124	=124	=124	=124
4d]	1e	2r	0r
4c	.	.	.
1c	.	2g	.
.	2.d	2f	.
2B	.	2g	.
.	4d	.	.
=125	=125	=125	=125
2c	1c	2.e	2r
2A	.	.	2cc
.	.	4f	.
2G	1r	2g	2b
2A	.	2e	2cc
=126	=126	=126	=126
2.F	0r	1.f	2.a
4G	.	.	4b
2A	.	.	2cc
2B	.	2f	[2dd
=127	=127	=127	=127
2c	1r	2e	2dd]
2A	.	4d	1cc
.	.	4c	.
1G	2r	1d	.
.	2g	.	2b
=128	=128	=128	=128
1c	2g	1e	2cc
.	2g	.	2ee
2c	2c	2.g	2.ee
2c	2g	.	.
.	.	4a	4ee
=129	=129	=129	=129
2G	4g	2b	2dd
.	4f	.	.
2c	4e	2cc	2ee
.	4d	.	.
2A	2c	2cc	2ee
2B	2d	2b	2dd
=130	=130	=130	=130
1c	1e	1g	1cc
1G	1d	1g	1b
=131	=131	=131	=131
2.A	2.a	2.e	2.cc
4A	4a	4e	4cc
2c	2g	2e	2cc
2G	2g	2d	2b
=132	=132	=132	=132
2A	2f	2d	2a
2A	2e	2c#	2a
2d	2f	2d	2a
2B	2g	2d	2b
=133	=133	=133	=133
1A	1c	2e	1.cc
.	.	2f#	.
1G	1d	2.g	.
.	.	.	4b
.	.	8f	4a
.	.	8e	.
=134	=134	=134	=134
0G	2r	1d	1b
.	4G	.	.
.	4A	.	.
.	4B	1r	1g
.	4c	.	.
.	4d	.	.
.	4B	.	.
=135	=135	=135	=135
1E	4c	0g	2r
.	4d	.	.
.	1e	.	4g
.	.	.	4a
1G	.	.	4b
.	.	.	4cc
.	2d	.	4dd
.	.	.	4b
=136	=136	=136	=136
1A	1c	1e	4cc
.	.	.	4dd
.	.	.	1ee
1G	1B	1g	.
.	.	.	2dd
=137	=137	=137	=137
1r	1r	1a	1cc
[1G	2.d	1g	2b
.	.	.	[2dd
.	4c	.	.
=138	=138	=138	=138
2G]	2B	2.g	2dd]
2E	2c	.	2ee
.	.	4g	.
2F	2A	2a	2cc
2G	2B	2d	2b
=139	=139	=139	=139
1F	1c	1f	1a
1C	1c	1e	2g
.	.	.	[2cc
=140	=140	=140	=140
1.F	2r	2.a	2cc]
.	2c	.	2a
.	.	4g	.
.	2A	[1f	2cc
2D	[2d	.	[2b
=141	=141	=141	=141
1F	4d]	2f]	4b]
.	4c	.	4a
.	2A	2d	1a
1E	1B	1e	.
.	.	.	2g#
=142	=142	=142	=142
1A	2A	2c	1a
.	2e	2c	.
1F	1d	1A	2r
.	.	.	2a
=143	=143	=143	=143
2E	2e	2B	1g#
2E	2e	2B	.
4D	[1f	1d	2a
4E	.	.	.
4F	.	.	2a
4G	.	.	.
=144	=144	=144	=144
4A	2f]	1c	1.cc
4B	.	.	.
2c	2e	.	.
1G	2d	1r	.
.	2d	.	2b
=145	=145	=145	=145
2A	1c	2r	4a
.	.	.	4b
2F	.	2a	4cc
.	.	.	4a
1E	2r	1g#	4b
.	.	.	4cc
.	2e	.	[2b
=146	=146	=146	=146
0r	1f	2a	4b]
.	.	.	4a
.	.	2a	1a
.	2e	2cc	.
.	2e	2b	2g#
=147	=147	=147	=147
1r	2c	4a	0a
.	.	4g	.
.	1d	4f	.
.	.	4e	.
1A	.	4f	.
.	.	4e	.
.	[2c	4e	.
.	.	8d	.
.	.	8c	.
=148	=148	=148	=148
1G	2c]	2d	1r
.	2B	2g	.
2A	1c	[1e	1a
2A	.	.	.
=149	=149	=149	=149
1.c	2r	1e]	1g
.	2e	.	.
.	1d	2r	2a
2B	.	2d	2b
=150	=150	=150	=150
2A	2e	1c	1.cc
2A	2e	.	.
1G	[1g	1d	.
.	.	.	2b
=151	=151	=151	=151
1D	2g]	1d	2a
.	2f	.	2a
2E	2e	[1g	2g
2C	2e	.	2cc
=152	=152	=152	=152
1D	1d	2g]	2b
.	.	2f	4a
.	.	.	4b
1A	[1c	2e	4cc
.	.	.	4b
.	.	2e	4a
.	.	.	4g
=153	=153	=153	=153
2F	2c]	1d	2a
2G	2B	.	1g
1D	1A	1d	.
.	.	.	2f#
=154	=154	=154	=154
0G	0B	0d	0g
==	==	==	==
*-	*-	*-	*-
!!!CDT: 1525/^1526/-1594/2/2
!!!OCY: Italia
!!!AGN: Mass (Parody)
!!!AST: renaissance, vocal
!!!ASW: Motet 1563 (Palestrina)
!!!PWK: Masses, Book 9
!!!RNB: Cadence finals: G
!!!YOR: Le Opere Complete, v. 25, p. 30
!!!YOO: Rome, Italy: Fratelli Scalera
!!!END: 1992//
!!!EED: John Miller
!!!YEC: Copyright 2000, John Miller
!!!YEN: United States of America
!!!YEM: Rights to all derivative electronic formats reserved.
!!!YEM: Refer to licensing agreement for further details.
!!!YEM: This file must be accompanied by the licensing agreement.
!!!YEM: A copy of the licensing agreement may be found at http://www.music-cog.ohio-state.edu/HumdrumDatabases/Palestrina/license.txt
!!!EMD: converted to Humdrum by Bret Aarden
